X:0884
M:6/8
L:1/8
Q:3/8=120
K:D
a3  g3 |fdf ecA|d2f ecA|d2f ecA|dcd ede|fef gfg|a2d c2B|A3 A3:|

